X:268
T:score68
L:1/16
Q:1/4=96
M:1/4
I:linebreak $
K:E
 z2 (B,2 |[M:2/4] E2DE F4-) | F(GGF !>!G4-) | G(AAG) (!>!c2>B2 | AGDE !>!F4-) |$ F(GGF E4) | %6
 (GAFG ABGA | c2) !>!F4 (GF | F2GF B4) |] %9
